X:88
%%etbk:tnset id:31,pos:1,rep:3
%%etbk:site1 http://www.thesession.org/tunes/display/964
T: Knocknagree, The
M: 4/4
L: 1/8
R: reel
K: Dmaj
|:D2 FA DAFA|dfed cABc|d2 cA (3Bcd AF|
GBAF GFEF|D2 FA DAFA|dfed cABc|
d2 cA (3Bcd AF|1 GBAG FDDE:|2 GBAG FDDf||
|:a2 fa dafa|gfed BdAf|a2 fa dafa|
bgeg fddf|a2 fa dafa|gfed BdAf|
afec dBAF|1 GBAG FDD%%etbk:site1|2 GBAF GFEF||


